X:0467
T:John Small's Minuet.
G:Minuet
M:3/8
L:1/16
Q:3/8=66
I: :: ::
Z:Jack Campin * www.campin.me.uk * 2009
K:G
D2| G3``A``B2| B2`dB``AG | A2`B2``d2 |Te4    g2|G3`AB2| B2g2(Bd)|TA4  G2| G4  ::
D2|(E2`G2).G2| g4     ga |Tf4     fa | f3`e``d2|B2e2e2|Te4   d2 | efgefd|Te3dB2|
    d2`e2``f2|.g2(ag)(fe)|.f2(gf)(ed)|(edef).g2|G3`AB2| B2g2`Bd |TA4  G2| G4  :|
<end>
<start>
